frontend/public/Images/Business/p5_text4.svg

<svg width="42" height="23" viewBox="0 0 42 23" fill="none" xmlns="http://www.w3.org/2000/svg">
<path d="M5.80195 15.975C3.62695 15.975 2.10195 13.6 2.10195 9.95C2.10195 6.35 3.62695 4 5.80195 4C7.95195 4 9.47695 6.35 9.47695 9.95C9.47695 13.6 7.95195 15.975 5.80195 15.975ZM5.80195 2.15C2.50195 2.15 0.151953 5.2 0.151953 9.95C0.151953 14.75 2.50195 17.8 5.80195 17.8C9.10195 17.8 11.427 14.75 11.427 9.95C11.427 5.2 9.10195 2.15 5.80195 2.15ZM20.652 7.775V6.075H17.077V0.449999H15.027V22.85H17.077V14.45H20.652V12.75H17.077V7.775H20.652ZM36.35 10.975C33.025 9.825 30.725 6.9 30.725 3.675V1.475H28.675V3.675C28.675 7.025 26.4 10.15 23.025 11.375L24.075 13C26.7 12 28.75 9.925 29.725 7.275C30.725 9.75 32.75 11.675 35.325 12.6L36.35 10.975ZM26.225 16.725H39.175V22.875H41.225V15.075H26.225V16.725ZM39.175 0.449999V13.925H41.225V0.449999H39.175Z" fill="white"/>
</svg>

<svg width="42" height="23" fill="none" xmlns="http://www.w3.org/2000/svg"><path d="M5.802 15.975c-2.175 0-3.7-2.375-3.7-6.025 0-3.6 1.525-5.95 3.7-5.95 2.15 0 3.675 2.35 3.675 5.95 0 3.65-1.525 6.025-3.675 6.025zm0-13.825c-3.3 0-5.65 3.05-5.65 7.8 0 4.8 2.35 7.85 5.65 7.85 3.3 0 5.625-3.05 5.625-7.85 0-4.75-2.325-7.8-5.625-7.8zm14.85 5.625v-1.7h-3.575V.45h-2.05v22.4h2.05v-8.4h3.575v-1.7h-3.575V7.775h3.575zm15.698 3.2c-3.325-1.15-5.625-4.075-5.625-7.3v-2.2h-2.05v2.2c0 3.35-2.275 6.475-5.65 7.7L24.075 13a9.68 9.68 0 005.65-5.725c1 2.475 3.025 4.4 5.6 5.325l1.025-1.625zm-10.125 5.75h12.95v6.15h2.05v-7.8h-15v1.65zM39.175.45v13.475h2.05V.45h-2.05z" fill="#fff"/></svg>
